X: 1
T: The Green Fields Of America
R: reel
M: 4/4
L: 1/8
K: Gmaj
c2ec B2dB | AGAB AGEF| ~G3E DEGB | AGAB AGEG |
c2ec B2dB | AGAB AGEF | ~G3E DEGA|BGAF G3z :||
GABc d2ef | gage dBGB | c2ec B2dB | AGAB AGE2 |
~g3d efge | dcBG AGEF | ~G3E DEGA | BGAF G3z :||


Tune 695	Setting 28647

